packages/ui-icons/svg/Line/attach-media.svg

<svg viewBox="0 0 1920 1920" version="1.1" xmlns="http://www.w3.org/2000/svg">
    <path d="M101.002105,1230.63705 L101.002105,377.954947 C658.711579,230.317053 1177.31368,342.485474 1315.45263,377.954947 L1315.45263,773.879158 L1416.50526,743.563368 L1416.50526,302.165474 L1380.83368,291.150737 C1354.56,282.864421 729.246316,93.9970526 31.68,292.464421 L-0.0505263158,305.197053 L-0.0505263158,1306.42653 L35.6210526,1317.34021 C52.9010526,1322.79705 331.402105,1406.87284 717.827368,1406.87284 C840,1406.87284 973.692632,1396.86863 1112.53895,1374.94021 L1112.53895,1273.68547 C636.176842,1351.496 222.063158,1261.66021 101.002105,1230.63705 M1919.90905,789.309895 L1919.90905,1482.83411 C1919.808,1585.90779 1837.65221,1669.68042 1736.59958,1669.68042 C1644.74274,1669.68042 1569.25642,1600.15621 1556.01853,1510.21937 C1554.60379,1501.12463 1553.29011,1492.02989 1553.29011,1482.53095 C1553.29011,1379.45726 1635.44589,1295.48253 1736.59958,1295.48253 C1753.27326,1295.48253 1769.13853,1298.41305 1784.49853,1302.75832 C1796.52379,1305.992 1808.04379,1310.64042 1818.85642,1316.29937 L1818.85642,1316.29937 L1818.85642,924.619368 L1779.04168,936.442526 L1416.46484,1043.76042 L1388.57432,1051.94568 L1388.57432,1631.88674 C1388.57432,1634.71621 1387.86695,1637.34358 1387.76589,1640.072 C1383.52168,1739.30568 1303.58905,1819.03621 1205.16379,1819.03621 C1104.01011,1819.03621 1021.85432,1735.06147 1021.85432,1631.88674 C1021.85432,1563.37305 1058.53642,1503.85305 1112.49853,1471.31411 C1139.88379,1454.84253 1171.21011,1444.73726 1205.16379,1444.73726 C1234.97432,1444.73726 1262.66274,1452.72042 1287.52168,1465.55411 L1287.52168,1465.55411 L1287.52168,976.459368 L1315.41221,968.274105 L1416.46484,938.362526 L1777.42484,831.549895 L1919.90905,789.309895 Z M527.514947,480.634526 L1088.35705,810.470316 L527.514947,1140.20505 L527.514947,480.634526 Z M628.567579,657.274526 L628.567579,963.565053 L888.980211,810.470316 L628.567579,657.274526 Z M1736.59958,1568.62779 C1698.50274,1568.62779 1667.78274,1540.93937 1658.48589,1503.95411 C1656.66695,1496.98147 1654.34274,1490.21095 1654.34274,1482.53095 C1654.34274,1435.13726 1691.22695,1396.53516 1736.59958,1396.53516 C1755.49642,1396.53516 1772.27116,1404.31621 1786.11537,1415.63411 C1805.61853,1431.39832 1818.85642,1454.94358 1818.85642,1482.53095 C1818.85642,1530.02568 1781.97221,1568.62779 1736.59958,1568.62779 L1736.59958,1568.62779 Z M1205.16379,1717.98358 C1159.79116,1717.98358 1122.90695,1679.38147 1122.90695,1631.88674 C1122.90695,1584.392 1159.79116,1545.78989 1205.16379,1545.78989 C1250.53642,1545.78989 1287.52168,1584.392 1287.52168,1631.88674 C1287.52168,1679.38147 1250.53642,1717.98358 1205.16379,1717.98358 L1205.16379,1717.98358 Z" stroke="none" stroke-width="1" fill-rule="evenodd"/>
</svg>

<svg viewBox="0 0 1920 1920" xmlns="http://www.w3.org/2000/svg">
    <path d="M101.002 1230.637V377.955c557.71-147.638 1076.312-35.47 1214.45 0v395.924l101.053-30.316V302.165l-35.671-11.014c-26.274-8.287-651.588-197.154-1349.154 1.313L-.05 305.197v1001.23l35.671 10.913c17.28 5.457 295.781 89.533 682.206 89.533 122.173 0 255.866-10.004 394.712-31.933v-101.255c-476.362 77.811-890.476-12.025-1011.537-43.048M1919.91 789.31v693.524c-.101 103.074-82.257 186.846-183.31 186.846-91.856 0-167.343-69.524-180.58-159.46-1.415-9.095-2.729-18.19-2.729-27.689 0-103.074 82.156-187.048 183.31-187.048 16.673 0 32.539 2.93 47.899 7.275 12.025 3.234 23.545 7.882 34.357 13.541V924.62l-39.814 11.824-362.577 107.317-27.89 8.186v579.94c0 2.83-.708 5.458-.81 8.186-4.243 99.234-84.176 178.964-182.601 178.964-101.154 0-183.31-83.975-183.31-187.15 0-68.513 36.682-128.033 90.645-160.572 27.385-16.471 58.711-26.577 92.665-26.577 29.81 0 57.499 7.983 82.358 20.817V976.46l27.89-8.185 101.053-29.911 360.96-106.813 142.484-42.24ZM527.515 480.635l560.842 329.835-560.842 329.735v-659.57Zm101.053 176.64v306.29L888.98 810.47 628.568 657.275ZM1736.6 1568.628c-38.097 0-68.817-27.689-78.114-64.674-1.82-6.973-4.143-13.743-4.143-21.423 0-47.394 36.884-85.996 82.257-85.996 18.896 0 35.671 7.781 49.515 19.1 19.504 15.763 32.741 39.309 32.741 66.896 0 47.495-36.884 86.097-82.256 86.097Zm-531.436 149.356c-45.373 0-82.257-38.603-82.257-86.097 0-47.495 36.884-86.097 82.257-86.097 45.372 0 82.358 38.602 82.358 86.097 0 47.494-36.986 86.097-82.358 86.097Z" fill-rule="evenodd"/>
</svg>
